X:118
T:Fisher's
T:Fisher's Hornpipe
R:hornpipe
Z:id:hn-hornpipe-118
M:C|
L:1/8
K:D
(3ABc | dAFA GBAG | FDFA GBAG | FDFA GBAG | FDDF E2 (3ABc |
dAFA GBAG | FDFA GBAG | FGAB cdec | d2f2 d2 :|
|: cd | ecAc efge | fdAd fagf | ecAc efgf | edcB A2dc |
BGDG BdcB | AFDF A2FA | BdcB cdec | d2f2 d2 :|

